X:1
T:Partition sans titre
C:Compositeur / Arrangeur
L:1/8
M:4/4
I:linebreak $
K:D
V:1 treble nm="Violon" snm="Vln."
V:1
"D" d2 cd"G" BAFA |"D" d2 cd"A" eABc |"D" d2 cd"G" BAFA | GBAG"D" FDDA |"D" d2 cd"G" BAFA | %5
"D" d2 cd"A" eABc |"D" d2 cd"G" BAFA |1"D" fd"A"ec"D" d3 A :|2"D" fd"A"ec"D" d3 e |: %9
"D" f2 fa gfed | fdfd"G" Bcde |"D" f2 fa gfed |"A" cdeg"D" fdde |"D" f2 fa gfed | fdfd"G" Bcde | %15
"D" f2 fa gfed |1"A" cABc"D" d3 e :|2"A" cABc"D" d3 A |] %18
